X: 1
T: Walking on the 4th of July
C: Kevin Slick
N: _
R: _
Z: 2020 John Chambers <jc:trillian.mit.edu> from a transcription by Tristan Scroggins
S: https://www.facebook.com/groups/Fiddletuneoftheday/ 2020-8-11
S: https://www.facebook.com/groups/Fiddletuneoftheday/photos/
M: 4/4
L: 1/8
K: D
"^A"|: "D"A,B, DE F4 | DE FA "G"B4 | "D"Bd BA F2 A2 |[1,3 "A"E4 z4 :|[2,4 "A"E2 A2 "D"D4 :|
"^B"|: "G"B2 B2 B2 B2 | Bd BA "D"F2 [A2A2] | EF AB A2 F2 |[1,3 "A"E8 :|[2,4 "A"E2 A2 "D"D4 :|
